X:14761
T:Sailors Hornpipe
M:4/4
L:1/4
C:Trad
R:Hornpipe
K:G
g/2f/2| gG Gd/2c/2| B/2d/2g g/2b/2a/2g/2| aA AA/2G/2| F/2A/2d de/2f/2|
 g/2f/2e/2d/2  e/2d/2c/2B/2| c/2B/2A/2G/2  G/2F/2E/2D/2| E/2G/2 F/2A/2 F
/2 G/2B/2 A/2c/2| BG G:|
|:d/2c/2| B/2d/2g/2d/2 B/2d/2g/2d/2| ec ce/2d/2| ^c/2e/2a/2e/2 c/2e/2a/2
e/2| fd dB|
 ce e/2d/2c/2B/2| c/2B/2A/2G/2  G/2F/2E/2D/2| E/2G/2 F/2A/2 F/2 G/2B/2 A
/2c/2| BG G:|
